brandFactory_export/2.Regular/Miembros_2Regular.svg

<?xml version="1.0" encoding="UTF-8"?>
<svg width="24px" height="24px" viewBox="0 0 24 24" version="1.1" xmlns="http://www.w3.org/2000/svg" xmlns:xlink="http://www.w3.org/1999/xlink">
    <title>2.Regular/Miembros_2Regular</title>
    <g id="Symbols" stroke="none" stroke-width="1" fill="none" fill-rule="evenodd">
        <g id="2.Regular/Miembros_2Regular" fill="#5CB615" fill-rule="nonzero">
            <path d="M9.53613445,5.31596639 C9.04537815,5.81008403 8.8,6.61680672 8.8,7.71260504 C8.8,8.80504202 9.0487395,9.60840336 9.53277311,10.0991597 C10.0067227,10.5764706 10.7630252,10.8151261 11.7781513,10.8151261 C12.7932773,10.8151261 13.5529412,10.5731092 14.0302521,10.0991597 C14.5210084,9.60840336 14.7697479,8.80504202 14.7697479,7.71260504 C14.7697479,6.61680672 14.5210084,5.81344538 14.0268908,5.31932773 C13.5495798,4.83865546 12.7932773,4.59663866 11.7781513,4.59663866 C10.7663866,4.59663866 10.0134454,4.83865546 9.53613445,5.31596639 Z M11.7815126,12.3882353 C10.3596639,12.3882353 9.25378151,11.9983193 8.4907563,11.2319328 C7.69411765,10.4352941 7.29411765,9.2487395 7.29411765,7.71260504 C7.29411765,6.17310924 7.69747899,4.98991597 8.4907563,4.18655462 C9.25714286,3.41344538 10.3630252,3.02352941 11.7848739,3.02352941 C13.2033613,3.02352941 14.312605,3.41680672 15.0789916,4.18655462 C15.8756303,4.98991597 16.2823529,6.17647059 16.2823529,7.71260504 C16.2823529,9.2487395 15.8789916,10.4319328 15.0789916,11.2319328 C14.3058824,11.9983193 13.2,12.3882353 11.7815126,12.3882353 Z M4.21176471,10.3310924 C4.0302521,10.512605 4.00336134,10.9361345 4.00336134,11.1714286 C4.00336134,11.4033613 4.0302521,11.8235294 4.20840336,12.005042 C4.34285714,12.1394958 4.62184874,12.210084 5.00168067,12.210084 C5.38151261,12.210084 5.66386555,12.1361345 5.79831933,12.0016807 C5.97983193,11.8201681 6.00672269,11.4 6.00672269,11.1680672 C6.00672269,10.9327731 5.97983193,10.512605 5.79495798,10.3277311 C5.6605042,10.1932773 5.37815126,10.1193277 5.00168067,10.1193277 C4.62184874,10.1226891 4.34285714,10.1966387 4.21176471,10.3310924 L4.21176471,10.3310924 Z M5.00168067,13.7831933 C4.20840336,13.7831933 3.58991597,13.5680672 3.16302521,13.1378151 C2.71932773,12.6907563 2.49411765,12.0285714 2.49411765,11.1714286 C2.49411765,10.3109244 2.71932773,9.6487395 3.16302521,9.20168067 C3.58991597,8.77142857 4.20840336,8.55294118 5.00168067,8.55294118 C5.79495798,8.55294118 6.41344538,8.77142857 6.84369748,9.20168067 C7.2907563,9.65210084 7.51596639,10.3142857 7.51596639,11.1747899 C7.51596639,12.0319328 7.2907563,12.6941176 6.84369748,13.1445378 C6.41344538,13.5680672 5.79159664,13.7831933 5.00168067,13.7831933 Z M17.8184874,10.394958 C17.6436975,10.5697479 17.6201681,10.9731092 17.6201681,11.1983193 C17.6201681,11.4201681 17.6470588,11.8235294 17.8184874,11.994958 C17.9428571,12.1193277 18.2218487,12.1932773 18.5848739,12.1932773 C18.9445378,12.1932773 19.2201681,12.1226891 19.3445378,11.9983193 C19.4689076,11.8739496 19.5394958,11.5815126 19.5394958,11.1983193 C19.5394958,10.9731092 19.512605,10.5663866 19.3411765,10.3915966 C19.2168067,10.2672269 18.9445378,10.1966387 18.5848739,10.1966387 C18.2151261,10.1932773 17.9462185,10.2638655 17.8184874,10.394958 L17.8184874,10.394958 Z M16.7697479,13.1310924 C16.3294118,12.6941176 16.107563,12.0420168 16.107563,11.1983193 C16.107563,10.3512605 16.3294118,9.70252101 16.7697479,9.26218487 C17.189916,8.83865546 17.7983193,8.62352941 18.5815126,8.62352941 C19.3579832,8.62352941 19.9697479,8.83865546 20.389916,9.26218487 C20.8235294,9.70252101 21.0453782,10.3546218 21.0453782,11.1983193 C21.0453782,12.0420168 20.8235294,12.6941176 20.3865546,13.1310924 C19.9663866,13.5546218 19.3579832,13.7663866 18.5781513,13.7663866 C17.8016807,13.7663866 17.1932773,13.5512605 16.7697479,13.1310924 Z M22.1142857,18.8184874 L22.1142857,18.4756303 C22.1142857,17.8773109 21.9462185,17.3764706 21.6268908,17.0268908 C21.2739496,16.6436975 20.7226891,16.4420168 20.0336134,16.4420168 L19.0453782,16.4386555 C19.4218487,17.1210084 19.6369748,17.9310924 19.7176471,18.8184874 L22.1142857,18.8184874 L22.1142857,18.8184874 Z M18.2554622,20.1529412 L18.2554622,19.5109244 C18.2554622,18.3310924 17.9428571,17.3495798 17.3546218,16.6705882 C16.5613445,15.7596639 15.3747899,15.5680672 14.5176471,15.5680672 L9.03865546,15.5680672 C8.18151261,15.5680672 6.99831933,15.7596639 6.20840336,16.6672269 C5.62352941,17.3428571 5.31428571,18.3243697 5.31428571,19.507563 L5.31428571,20.1495798 C5.31428571,20.1529412 18.2554622,20.1529412 18.2554622,20.1529412 L18.2554622,20.1529412 Z M3.85210084,18.8386555 C3.92941176,17.9512605 4.14117647,17.1411765 4.51428571,16.4554622 L3.59327731,16.4588235 C2.90084034,16.4588235 2.34957983,16.6605042 2,17.0436975 C1.68067227,17.389916 1.5092437,17.8907563 1.5092437,18.4890756 L1.5092437,18.8352941 C1.5092437,18.8386555 3.85210084,18.8386555 3.85210084,18.8386555 Z M22.7159664,15.9378151 C23.3109244,16.5831933 23.6235294,17.4605042 23.6235294,18.4756303 L23.6235294,19.3193277 C23.6235294,19.9109244 23.1596639,20.3915966 22.5915966,20.3915966 L19.7647059,20.3915966 L19.7647059,21.1613445 C19.7647059,21.4739496 19.5361345,21.7260504 19.2537815,21.7260504 L4.31596639,21.7260504 C4.03361345,21.7260504 3.80504202,21.4739496 3.80504202,21.1613445 L3.80504202,20.4117647 L1.03193277,20.4117647 C0.463865546,20.4117647 0,19.9277311 0,19.3361345 L0,18.492437 C0,17.4773109 0.312605042,16.6033613 0.907563025,15.9579832 C1.54957983,15.2588235 2.47731092,14.8857143 3.59327731,14.8857143 L5.91260504,14.8857143 C6.75630252,14.3042017 7.81512605,13.994958 9.03865546,13.994958 L14.5142857,13.994958 C15.7277311,13.994958 16.7731092,14.297479 17.6134454,14.8655462 L20.0302521,14.8655462 C21.1462185,14.8689076 22.0739496,15.2386555 22.7159664,15.9378151 L22.7159664,15.9378151 Z" id="Miembros_2Regular"></path>
        </g>
    </g>
</svg>

<svg width="24" height="24" viewBox="0 0 24 24" xmlns="http://www.w3.org/2000/svg"><path d="M9.536 5.316c-.49.494-.736 1.3-.736 2.397 0 1.092.249 1.895.733 2.386.474.477 1.23.716 2.245.716 1.015 0 1.775-.242 2.252-.716.491-.49.74-1.294.74-2.386 0-1.096-.249-1.9-.743-2.394-.477-.48-1.234-.722-2.249-.722-1.012 0-1.765.242-2.242.719zm2.246 7.072c-1.422 0-2.528-.39-3.291-1.156-.797-.797-1.197-1.983-1.197-3.52 0-1.539.403-2.722 1.197-3.525.766-.774 1.872-1.163 3.294-1.163 1.418 0 2.528.393 3.294 1.163.797.803 1.203 1.99 1.203 3.526 0 1.536-.403 2.719-1.203 3.519-.773.766-1.879 1.156-3.297 1.156zm-7.57-2.057c-.182.182-.209.605-.209.84 0 .232.027.653.205.834.135.134.414.205.794.205.38 0 .662-.074.796-.208.182-.182.209-.602.209-.834 0-.235-.027-.655-.212-.84-.134-.135-.417-.209-.793-.209-.38.004-.66.078-.79.212zm.79 3.452c-.794 0-1.412-.215-1.839-.645-.444-.447-.669-1.11-.669-1.967 0-.86.225-1.522.669-1.97.427-.43 1.045-.648 1.839-.648.793 0 1.411.218 1.842.649.447.45.672 1.112.672 1.973 0 .857-.225 1.52-.672 1.97-.43.423-1.052.638-1.842.638zm12.816-3.388c-.174.175-.198.578-.198.803 0 .222.027.626.198.797.125.124.404.198.767.198.36 0 .635-.07.76-.195.124-.124.194-.416.194-.8 0-.225-.026-.632-.198-.806-.124-.125-.396-.195-.756-.195-.37-.004-.639.067-.767.198zm-1.048 2.736c-.44-.437-.662-1.089-.662-1.933 0-.847.221-1.495.662-1.936.42-.423 1.028-.638 1.812-.638.776 0 1.388.215 1.808.638.434.44.655 1.093.655 1.936 0 .844-.221 1.496-.658 1.933-.42.424-1.029.635-1.809.635-.776 0-1.385-.215-1.808-.635zm5.344 5.687v-.342c0-.599-.168-1.1-.487-1.45-.353-.382-.904-.584-1.593-.584l-.989-.003c.377.682.592 1.492.673 2.38h2.396zm-3.859 1.335v-.642c0-1.18-.312-2.161-.9-2.84-.794-.911-1.98-1.103-2.837-1.103h-5.48c-.856 0-2.04.192-2.83 1.1-.584.675-.894 1.656-.894 2.84v.642c0 .003 12.941.003 12.941.003zM3.852 18.839c.077-.888.29-1.698.662-2.384l-.92.004c-.693 0-1.244.202-1.594.585-.32.346-.49.847-.49 1.445v.346c0 .004 2.342.004 2.342.004zm18.864-2.901c.595.645.908 1.523.908 2.538v.843c0 .592-.464 1.073-1.032 1.073h-2.827v.77c0 .312-.229.564-.511.564H4.316c-.282 0-.511-.252-.511-.565v-.75H1.032C.464 20.412 0 19.929 0 19.337v-.844c0-1.015.313-1.889.908-2.534.642-.7 1.57-1.072 2.685-1.072h2.32c.843-.582 1.902-.891 3.126-.891h5.475c1.214 0 2.26.302 3.1.87h2.416c1.116.004 2.044.374 2.686 1.073z" fill="#5CB615" fill-rule="nonzero"/></svg>
